dist/images/service/1.svg

<svg width="78" height="75" viewBox="0 0 78 75" fill="none" xmlns="http://www.w3.org/2000/svg">
<path d="M55.3183 11.4528C57.3151 11.477 59.2401 12.2708 60.6721 13.6668C62.1276 15.0745 62.9698 16.9995 63.0064 19.0207C63.0547 19.8027 63.6681 20.4284 64.4383 20.5128C65.1719 20.5128 65.7859 19.923 65.7859 19.1894V19.1776C65.6656 15.0989 68.842 11.6823 72.9201 11.5138H73.1608C73.8944 11.5138 74.496 10.9122 74.496 10.1786C74.496 9.44489 73.8944 8.84334 73.1608 8.84334H73.0764C71.1757 8.84334 69.3468 8.06133 68.0234 6.68959C66.7484 5.378 65.9782 3.65766 65.8579 1.82881V1.50387C65.8579 1.37174 65.8337 1.23908 65.7977 1.11877C65.6892 0.481238 65.136 0.011811 64.4985 0C63.7648 0 63.1633 0.601547 63.1633 1.33522V1.82826C62.8625 5.8103 59.4938 8.85461 55.5119 8.77019H55.3314C54.5977 8.78201 53.9962 9.38355 54.008 10.1296C54.0074 10.8391 54.5966 11.4288 55.3185 11.453L55.3183 11.4528ZM64.522 6.41168C64.9549 7.19369 65.4963 7.90379 66.1221 8.54122C66.7354 9.15458 67.4213 9.69597 68.1792 10.1413C66.5667 11.0919 65.2557 12.4632 64.3653 14.1115C63.884 13.2451 63.2825 12.4513 62.5848 11.7537C61.9591 11.164 61.2614 10.6591 60.5035 10.2498C62.1642 9.35924 63.5597 8.03579 64.5221 6.41168H64.522Z" fill="#0038FF"/>
<path d="M43.1913 50.3975C34.818 50.0968 28.2729 43.0705 28.574 34.7092C28.8748 26.3359 35.9011 19.7908 44.2624 20.0919C52.6237 20.3931 59.1684 27.4066 58.892 35.7679C58.8679 36.5016 59.4452 37.1273 60.1795 37.1514C60.9131 37.1874 61.527 36.6218 61.5629 35.9V35.8758C61.8997 26.0222 54.188 17.7689 44.347 17.432C34.4935 17.0953 26.2401 24.8069 25.9032 34.648C25.5665 44.4891 33.2663 52.7549 43.1068 53.0917H43.1551C43.8888 53.1036 44.5027 52.5144 44.5145 51.7801C44.5258 51.0228 43.9366 50.4095 43.1906 50.3976L43.1913 50.3975Z" fill="#0038FF"/>
<path d="M16.9525 19.164C21.8852 19.164 25.8796 15.1696 25.8796 10.2369C25.8796 5.30423 21.8852 1.30981 16.9525 1.30981C12.0198 1.30981 8.02539 5.30423 8.02539 10.2369C8.02539 15.1696 12.0198 19.164 16.9525 19.164ZM16.9525 3.99265C20.4054 3.99265 23.1968 6.78396 23.1968 10.2369C23.1968 13.6899 20.4054 16.4812 16.9525 16.4812C13.4995 16.4812 10.7082 13.6899 10.7082 10.2369C10.7082 6.79579 13.4995 3.99265 16.9525 3.99265Z" fill="#0038FF"/>
<path d="M62.5251 40.5788C54.3925 40.2898 47.571 46.6545 47.2946 54.7877C47.0057 62.9203 53.3703 69.7418 61.5035 70.0182H62.0207C70.1534 70.1627 76.8552 63.6778 76.9996 55.5453C77.1317 47.4249 70.6592 40.7232 62.5267 40.5788H62.5251ZM70.2609 64.1113L70.2368 64.0995C65.376 68.6471 57.7606 68.3823 53.2133 63.534C48.6658 58.6732 48.9306 51.0578 53.7789 46.5105C56.0047 44.4292 58.9522 43.2621 62.0083 43.2621H62.4654C69.1184 43.491 74.316 49.0612 74.087 55.7141C73.9791 58.9018 72.5955 61.9218 70.2613 64.1116L70.2609 64.1113Z" fill="#0038FF"/>
<path d="M11.5981 32.5547C5.19751 32.5547 0 37.7404 0 44.1528C0 50.5534 5.19751 55.7509 11.5981 55.7509C17.9987 55.7509 23.1962 50.5534 23.1962 44.1528C23.1957 37.7404 18.0105 32.5547 11.5981 32.5547ZM11.5981 53.0678C6.66542 53.0678 2.67101 49.0734 2.67101 44.1407C2.67101 39.208 6.66542 35.2136 11.5981 35.2136C16.5308 35.2136 20.5252 39.208 20.5252 44.1407C20.5247 49.0739 16.5308 53.0678 11.5981 53.0678Z" fill="#0038FF"/>
<path d="M37.0303 65.0507L36.9584 65.0389C35.6591 65.0389 34.4077 64.5217 33.4936 63.607C32.5553 62.6805 31.9896 61.4414 31.8935 60.118V59.8774C31.8694 59.1196 31.2802 58.4939 30.5341 58.4219C29.8005 58.4337 29.2107 59.0352 29.2107 59.7695V60.1304C29.1022 63.1139 26.3593 64.9788 23.8086 65.0147H23.64C22.9063 65.0265 22.3048 65.628 22.3166 66.3741C22.3166 67.1077 22.9181 67.6975 23.6518 67.6975H23.676C25.0955 67.6975 26.4431 68.263 27.4416 69.2733C28.476 70.26 29.0657 71.6193 29.0899 73.0513C29.1259 73.8215 29.7274 74.4466 30.4976 74.5068C31.2312 74.495 31.821 73.8935 31.821 73.1593C31.7248 70.2718 33.9866 67.8538 36.874 67.7572H37.0426C37.7763 67.7572 38.3779 67.1556 38.3779 66.4219C38.3779 65.6883 37.7645 65.0507 37.0303 65.0507L37.0303 65.0507ZM30.4133 68.7078C30.0884 68.2148 29.7156 67.7572 29.2945 67.3485C28.9454 67.0235 28.5727 66.7227 28.1758 66.458C29.1023 65.8924 29.9085 65.1345 30.5459 64.244C30.8585 64.7252 31.2194 65.1581 31.6169 65.5674C31.9419 65.8923 32.2904 66.1931 32.6637 66.4579C31.7609 67.0476 31.003 67.8178 30.4133 68.7078V68.7078Z" fill="#0038FF"/>
<path d="M44.2254 23.6284C44.2136 23.6284 44.2136 23.6284 44.2254 23.6284C38.246 23.4119 33.2413 28.4047 33.0125 34.7329C32.9883 35.4665 33.5539 36.0922 34.2999 36.1282H34.3117H34.36C35.0819 36.1282 35.6716 35.5508 35.6953 34.8289C35.8639 29.9805 39.6536 26.2027 44.1287 26.3112C44.8624 26.3472 45.4763 25.7816 45.5122 25.0597V25.0356C45.5369 24.2777 44.9596 23.6643 44.2254 23.6284L44.2254 23.6284Z" fill="#0038FF"/>
<path d="M61.6103 45.4874C56.9301 45.4633 53.1284 49.2288 53.0925 53.9091C53.0684 54.6428 53.6457 55.2685 54.38 55.2926H54.4283C55.1501 55.2926 55.7399 54.7152 55.7635 53.9933C55.7635 50.8051 58.326 48.1943 61.5142 48.1466C62.236 48.1826 62.8617 47.6294 62.8977 46.9075V46.8473C62.9218 46.1255 62.3445 45.5116 61.6102 45.4874H61.6103Z" fill="#0038FF"/>
<path d="M10.2639 37.463C7.07563 37.463 4.46484 40.4589 4.46484 44.1519C4.46484 44.8856 5.06639 45.4871 5.80006 45.4871C6.53373 45.4871 7.13528 44.8856 7.13528 44.1519C7.13528 41.938 8.53059 40.1333 10.2633 40.1333C10.997 40.1333 11.5985 39.5318 11.5985 38.7981C11.5996 38.0644 10.9981 37.4629 10.2639 37.4629L10.2639 37.463Z" fill="#0038FF"/>
</svg>

<svg width="78" height="75" fill="none" xmlns="http://www.w3.org/2000/svg"><path d="M55.318 11.453a7.82 7.82 0 015.354 2.214 7.646 7.646 0 012.334 5.354 1.608 1.608 0 001.432 1.492c.734 0 1.348-.59 1.348-1.324v-.011a7.445 7.445 0 017.134-7.664h.24a1.34 1.34 0 001.336-1.335 1.34 1.34 0 00-1.335-1.336h-.085a7.04 7.04 0 01-5.053-2.153 7.697 7.697 0 01-2.165-4.861v-.325a1.36 1.36 0 00-.06-.385A1.35 1.35 0 0064.498 0a1.34 1.34 0 00-1.335 1.335v.493a7.515 7.515 0 01-7.651 6.942h-.18a1.343 1.343 0 00-1.324 1.36c0 .71.589 1.299 1.31 1.323zm9.204-5.041a9.856 9.856 0 001.6 2.13 10.32 10.32 0 002.057 1.6 10.25 10.25 0 00-3.814 3.97 10.655 10.655 0 00-1.78-2.358 9.87 9.87 0 00-2.081-1.504 10.353 10.353 0 004.018-3.838zM43.191 50.398c-8.373-.301-14.918-7.328-14.617-15.689.3-8.373 7.327-14.918 15.688-14.617 8.362.301 14.906 7.315 14.63 15.676a1.341 1.341 0 001.287 1.383 1.32 1.32 0 001.384-1.251v-.024c.337-9.854-7.375-18.107-17.216-18.444-9.854-.337-18.107 7.375-18.444 17.216-.336 9.841 7.363 18.107 17.204 18.444h.048a1.34 1.34 0 001.36-1.312 1.349 1.349 0 00-1.324-1.382zM16.953 19.164a8.924 8.924 0 008.927-8.927 8.924 8.924 0 00-8.927-8.927 8.924 8.924 0 00-8.928 8.927 8.924 8.924 0 008.928 8.927zm0-15.171a6.239 6.239 0 016.244 6.244 6.239 6.239 0 01-6.244 6.244 6.239 6.239 0 01-6.245-6.244 6.246 6.246 0 016.245-6.244z" fill="#0038FF"/><path d="M62.525 40.579c-8.133-.29-14.954 6.075-15.23 14.209-.29 8.132 6.075 14.954 14.209 15.23h.517c8.132.145 14.834-6.34 14.979-14.473.132-8.12-6.34-14.822-14.473-14.966h-.002zm7.736 23.532l-.024-.011c-4.861 4.547-12.476 4.282-17.024-.566-4.547-4.86-4.282-12.476.566-17.023a12.064 12.064 0 018.23-3.249h.456c6.653.229 11.851 5.8 11.622 12.452a12.092 12.092 0 01-3.826 8.398zM11.598 32.555C5.198 32.555 0 37.74 0 44.153c0 6.4 5.198 11.598 11.598 11.598s11.598-5.198 11.598-11.598a11.59 11.59 0 00-11.598-11.598zm0 20.513a8.924 8.924 0 01-8.927-8.927 8.924 8.924 0 018.927-8.927 8.924 8.924 0 018.927 8.927 8.924 8.924 0 01-8.927 8.927zM37.03 65.05l-.072-.011a4.904 4.904 0 01-3.464-1.432 5.45 5.45 0 01-1.6-3.489v-.24a1.514 1.514 0 00-1.36-1.456 1.348 1.348 0 00-1.323 1.348v.36c-.109 2.984-2.852 4.849-5.402 4.885h-.169a1.343 1.343 0 00-1.323 1.36 1.33 1.33 0 001.335 1.323h.024a5.28 5.28 0 013.766 1.575 5.337 5.337 0 011.648 3.778 1.53 1.53 0 001.408 1.456 1.348 1.348 0 001.323-1.348 5.23 5.23 0 015.053-5.402h.169a1.34 1.34 0 001.335-1.335c0-.734-.614-1.371-1.348-1.371zm-6.617 3.658a8.105 8.105 0 00-1.119-1.36 8.871 8.871 0 00-1.118-.89 8.146 8.146 0 002.37-2.214c.313.481.673.914 1.07 1.323.326.325.674.626 1.048.89a7.864 7.864 0 00-2.25 2.25zm13.812-45.08c-.011 0-.011 0 0 0-5.979-.216-10.984 4.777-11.212 11.105a1.351 1.351 0 001.287 1.395h.06a1.34 1.34 0 001.335-1.3c.169-4.848 3.959-8.625 8.434-8.517a1.32 1.32 0 001.383-1.251v-.024a1.354 1.354 0 00-1.287-1.408z" fill="#0038FF"/><path d="M61.61 45.487c-4.68-.024-8.482 3.742-8.517 8.422a1.341 1.341 0 001.287 1.384h.048a1.34 1.34 0 001.336-1.3c0-3.188 2.562-5.799 5.75-5.846a1.317 1.317 0 001.384-1.24v-.06a1.328 1.328 0 00-1.288-1.36zm-51.346-8.024c-3.188 0-5.8 2.996-5.8 6.689A1.34 1.34 0 005.8 45.487a1.34 1.34 0 001.335-1.335c0-2.214 1.396-4.019 3.128-4.019a1.34 1.34 0 001.335-1.335 1.338 1.338 0 00-1.334-1.335z" fill="#0038FF"/></svg>
